!!!OTL: 766d. Treuherz auf der Schildwacht.
!!!ODT: 1855
!!!ARE: Europa, Mitteleuropa, Deutschland, Brandenburg, Trebbin
!!!SCT: E0766E
!!!TXL: @@DE
!!!YEM: Copyright 1995, estate of Helmut Schaffrath.
**kern	**text
*ICvox	*
!! Mixed meters:  4/4; 3/4
*M4/4	*
*met(c)	*
*k[b-e-a-]	*
*E-:	*
!LO:TX:a:t=Aus dem Brangenburgiſchen (Trebbin) 1855.	!
{8B-	Schät,
8e-	wenn
8g	du
=1	=1
8.b-	rei-
16b-	-ſen
8b-	willſt,
8b-	reiſ
8a-	nicht
8cc	ſo
8b-/	weit
8a-	von
=2	=2
*M3/4	*
4g	mir!
8r}	.
{8e-	Jm
8e-	Ro-
8e-	-ſen-
=3	=3
8a-L	-gar-
8ccJ	.
8ee-	-ten
8ee-	will
8dd	ich
8cc	dein
=4	=4
8b-L	war-
8e-J	.
8g}	-ten,
{8b-	im
8cc	grü-
8b-	-nen
=5	=5
8fL	Klee,
8a-	.
8ccJ	.
8b-	im
8a-	wei-
8d	-ßen
=6	=6
4e-	Schnee.
8r}	.
{8e-	Jm
8e-	Ro-
8e-	-ſen-
=7	=7
8a-L	-gar-
8ccJ	.
8ee-	-ten
8ee-	will
8dd	ich
8cc	dein
=8	=8
8b-L	war-
8e-J	.
8g}	-ten,
{8b-	im
8cc	grü-
8b-	-nen
=9	=9
8fL	Klee,
8a-	.
8ccJ	.
8b-	im
8a-	wei-
8d	-ßen
=10	=10
4e-	Schnee.
8r}	.
==	==
!!!AGN: Abschieds - Lied, Liebe
!!!ONB: ESAC (Essen Associative Code) Database: ERK2
!!!AMT: irregular
!!!AIN: vox
!!!EED: Helmut Schaffrath
!!!EEV: 1.0
!!!GTL: Abschieds- und Wanderlieder
!!!URL-scan: https://rosdok.uni-rostock.de/mcrviewer/recordIdentifier/rosdok_ppn745177662/iview2/phys_0574.iview2?x=134.15085127905627&y=1748.6939247869886&scale=0.7029437510502773&rotation=0&layout=singlePageLayout
!!!ENC: Anna Maria Matuszewska
!!!EEV: 2024/12/16
*-	*-
